src/images/icon/icon_active.svg

<svg height="32" viewBox="0 0 32 32" width="32" xmlns="http://www.w3.org/2000/svg"><g fill="none" fill-rule="evenodd"><circle cx="16" cy="16" r="15.5" stroke="#d8e2f1"/><g transform="translate(6 6)"><path d="m10 1.5c4.6944204 0 8.5 3.80557963 8.5 8.5 0 .4449555-.0341893.8819257-.1000841 1.3084268l-1.9511017-.488765c.03378-.2684674.0511858-.5420319.0511858-.8196618 0-3.58985087-2.9101491-6.5-6.5-6.5-3.58985087 0-6.5 2.91014913-6.5 6.5 0 3.5898509 2.91014913 6.5 6.5 6.5.2817736 0 .5593596-.0179293.8316794-.0527093l.4928368 1.9501235c-.4315989.067531-.8739638.1025858-1.3245162.1025858-4.69442037 0-8.5-3.8055796-8.5-8.5 0-4.69442037 3.80557963-8.5 8.5-8.5zm6.0903561 10.7760672 1.9498245.4888638c-.2284915.6645737-.5370593 1.2919041-.9141799 1.8704679l-1.6823917.8082101-.7951118 1.6738367c-.5775466.3779721-1.2038996.6875446-1.8675523.9172111l-.4928771-1.9488011c1.7532641-.6594835 3.1461632-2.0548827 3.8022883-3.8097885z" fill="#36435c" fill-rule="nonzero"/><path d="m10 7c1.6568542 0 3 1.34314575 3 3l-.002-.046-4.06808372-1.0192108 1.02802852 4.064922c-1.63746777-.0224989-2.9579448-1.3568981-2.9579448-2.9997112 0-1.65685425 1.34314575-3 3-3zm1 4 1.6466203.4138376c-.2794858.5220879-.7089398.9518498-1.230793 1.2317166z" fill="#36435c"/><path d="m15.443609 15.443609-2.1654135 4.556391-2.2781955-9 9 2.2556391z" fill="#b6c2cd" fill-rule="nonzero"/></g></g></svg>

<?xml version="1.0" encoding="UTF-8"?>
<svg width="32px" height="32px" viewBox="0 0 32 32" version="1.1" xmlns="http://www.w3.org/2000/svg" xmlns:xlink="http://www.w3.org/1999/xlink">
    <g id="Dashboard" stroke="none" stroke-width="1" fill="none" fill-rule="evenodd">
        <g id="00-Menu-交互备份" transform="translate(-421.000000, -230.000000)">
            <g id="编组-22" transform="translate(421.000000, 230.000000)">
                <circle id="icon_active" stroke="#D8E2F1" cx="16" cy="16" r="15.5"></circle>
                <g id="编组-15" transform="translate(6.000000, 6.000000)">
                    <path d="M10,1.5 C14.6944204,1.5 18.5,5.30557963 18.5,10 C18.5,10.4449555 18.4658107,10.8819257 18.3999159,11.3084268 L16.4488142,10.8196618 C16.4825942,10.5511944 16.5,10.2776299 16.5,10 C16.5,6.41014913 13.5898509,3.5 10,3.5 C6.41014913,3.5 3.5,6.41014913 3.5,10 C3.5,13.5898509 6.41014913,16.5 10,16.5 C10.2817736,16.5 10.5593596,16.4820707 10.8316794,16.4472907 L11.3245162,18.3974142 C10.8929173,18.4649452 10.4505524,18.5 10,18.5 C5.30557963,18.5 1.5,14.6944204 1.5,10 C1.5,5.30557963 5.30557963,1.5 10,1.5 Z M16.0903561,12.2760672 L18.0401806,12.764931 C17.8116891,13.4295047 17.5031213,14.0568351 17.1260007,14.6353989 L15.443609,15.443609 L14.6484972,17.1174457 C14.0709506,17.4954178 13.4445976,17.8049903 12.7809449,18.0346568 L12.2880678,16.0858557 C14.0413319,15.4263722 15.434231,14.030973 16.0903561,12.2760672 Z" id="形状结合" fill="#36435C" fill-rule="nonzero"></path>
                    <path d="M10,7 C11.6568542,7 13,8.34314575 13,10 L12.998,9.954 L8.92991628,8.9347892 L9.9579448,12.9997112 C8.32047703,12.9772123 7,11.6428131 7,10 C7,8.34314575 8.34314575,7 10,7 Z M11,11 L12.6466203,11.4138376 C12.3671345,11.9359255 11.9376805,12.3656874 11.4158273,12.6455542 L11,11 Z" id="形状结合" fill="#36435C"></path>
                    <polygon id="路径" fill="#B6C2CD" fill-rule="nonzero" points="15.443609 15.443609 13.2781955 20 11 11 20 13.2556391"></polygon>
                </g>
            </g>
        </g>
    </g>
</svg>
